X:1
T:Title
%%score 1 2 3 4
L:1/8
M:4/2
K:C
V:1 treble nm="Part_1"
V:2 treble-8 nm="Part_2"
V:3 treble-8 nm="Part_3"
V:4 bass nm="Part_4"
V:1
 A8 G8 | A8 G8 | F8 G8 | G8 B8 | c8 A8 | A8 G8 | A8 B8 | A8 B8 | c8 A8 | A8 F8 | G8 G8 | F8 E8 | %12
 F8 D8 | G8 G8 | F8 E8 | F8 D8 | G8 F8 | F8 G8 | G8 A8 | c8 A8 | G8 A8 | G8 F8 | A8 A8 | A8 c8 | %24
 B8 c8 | A8 A8 | c8 A8 | A8 F8 | G8 F8 | G8 F8 | F8 F8 | G8 G8 | A8 c8 | A8 G8 | A8 G8 | F8 G8 | %36
 F8 F8 | G8 A8 | G8 A8 | G8 F8 | E8 F8 | G8 F8 | G8 G8 | F8 F8 | G8 G8 | A8 c8 | A8 G8 | A8 G8 | %48
 F8 G8 | F8 F8 | E8 F8 | G8 A8 | F8 G8 | F8 E8 | D8 F8 | E8 F8 | E8 (3D8 E2 F2 | G4 E6 D2 D4- | %58
 D4 ^C4 D8- | D16 ||[M:4/2] (G8 F8) | (G8 A8) | A8 A8 | A12 A4 | (A8 c8) | A8 z4 A4- | %66
 A2 G2 F2 E2 F4 E4- | E2 D2 D8 ^C4 | D16 || (F8 G8) | A8 (A8 | G8) (A8 | c8) B8 | (A8 c8) | %74
 (c8 d8) | c6 B2 A2 G2 A4- | A2 G2 G8 ^F4 | G16 || z16 | z16 | c8 c4 (3:2:1d6- | %81
 (3:2:2d2 c4 c8 B4 | c8 z8 | B8 c4 d4 | G4 c8 B4 | c8 z8 | (c8 A8) | (c8 e8) | d8 c8 | (B8 c8) | %90
 (A8 G8) | c8 B4 (3:2:1A6- | (3:2:2A2 G4 G8 ^F4 | G16 | z8 G8 | A8 G4 c4- | c4 B4 c8 | z4 c8 c4 | %98
 c4 c4 c8 | (c8 A8) | c6 B2 A6 G2 | F8 z4 c4- | c2 B2 A4 G4 A4- | A2 G2 F8 E4 | F16 | z8 (A8 | %106
 F8) (G8 | A8) c8 | A6 G2 A2 B2 c4- | c4 B4 c4 A4- | A2 D2 G8 ^F4 | G16 ||[K:F][M:4/2] z16 | z16 | %114
 z16 | z16 | z16 | z16 | (G8 F8) | G8 A4 B4- | B2 A2 G2 F2 E4 (3:2:1G6- | (3:2:2G2 F4 F8 E4 | %122
 F8 z8 | z4 B6 A2 G2 F2 | E4 F8 E4 | F8 z8 | z4 B6 A2 G2 F2 | E4 F8 E4 | F8 z8 | (c8 B8) | %130
 (A8 B8) | c8 z4 F4 | G4 F4 G4 A4 | B6 A2 G2 F2 G4- | G2 F2 F8 E4 | z8 F8 || (F8 G8) | A16 | z16 | %139
 z8 (F8 | G8) A8 | B8 A4 A4- | A4 G4 A8 | z8 A8 | c8 c8 | (A8 G8) | A8 B8 | A4 A8 G4 | A8 z8 | %149
 F8 (G8 | F8) (G8 | A8) (B8 | A8) G8 | E4 F8 G4 | A4 G2 F2 E4 A4 | G4 F8 E4 | F16 || z16 | z16 | %159
 z16 | z16 | z16 | F8 (F8 | G8) A8 | F6 G2 A4 (3:2:1B6- | (3:2:2B2 A4 A8 G4 | A16 | z8 z4 c4- | %168
 c4 B4 (c8 | d8) (c8 | B8) A4 G2 F2 | E4 F8 E4 | F16- | F16 || z16 | z16 | z16 | z8 c8 | c8 d8 | %179
 B8 c8 | B4 A8 G4 | A16 | z8 c8 | (A8 G8) | A8 B8 | (A8 G8) | F6 G2 A4 B4- | B4 A8 G4 | A8 z4 B4 | %189
 B2 A2 G2 F2 E2 D2 G4- | G2 F2 F8 E4 | F16- | F16 || z16 | z16 | z16 | z16 | z16 | z16 | z16 | %200
 z16 | z8 c8 | (A8 G8) | A8 B8 | (A8 G8) | F4 G4 A4 B4 | c4 A8 G4 | A8 z8 | B8 (A8 | G8) (F8 | %210
 E8) F4 (3:2:1G6- | (3:2:2G2 A4 F8 E4 | F16 ||[M:4/2] z8 C8 | F8 G8 | E6 F2 G4 (3:2:1A6- | %216
 (3:2:2A2 G4 F8 E4 | F16 | z8 C8 | F8 G8 | (3:2:2A8 G4 A4 B4- | B2 A2 G2 F2 E8 | F8 z8 | A8 c8 | %224
 B8 A4 (3:2:1G6- | (3:2:2G2 F4 F8 E4 | F8 z8 | (3G8 G8 D8 | (3:2:2G16 F8 | (3:2:2G16 A8 | %230
 (3:2:4B12 A4 G4 F4 | (3(A8 G12) F4 | (3:2:2F16 E8 | F16 |][K:C] (d8 e8) | (d8 e8) | (d8 c8) | %237
 (c8 d8) | c4 A8 G4 | A16 | z8 A8 | (A8 d8) | c8 (d8 | e8) c8 | c8 (c8 | d8) (e8 | d8) c4 d4 | %247
 G4 c8 B4 | c16 | z16 | z16 | z16 | z16 | z16 | (c8 d8) | c8 (c8 | d8) c8 | z8 c8 | (A8 B8) | %259
 (c8 B8) | A8 G4 (3:2:1A6- | (3:2:2A4 G2 G8 ^F4 | G16 | (3:2:2c16 (B8 | (3:2:2(c8) d16) | %265
 (3:2:4e12 d4 e4 f4 | (3g12 f4 e8 | (3:2:2d16 e8 | (3f12 e4 d8 | (3:2:2c16 d8 | (3e12 d4 c8 | %271
 (3(B8 d12) c4 | (3:2:2c16 B8 | c16 |] %274
V:2
 d8 B4 c4 | A4 d8 c4 | d6 c2 d4 e4- | e4 d2 c2 d8 | c8 z4 f4- | f2 e2 d6 B2 c4 | F4 D4 d8- | %7
 d8 z4 d4 | c4 e6 d2 c2 B2 | A4 d6 c2 A4 | B4 (G8 c4-) | c4 B4 c2 B2 A2 G2 | F6 G2 A8 | G16 | z16 | %15
 z4 d6 c2 A4 | B2 A2 d8 c2 B2 | A8 G8- | G8 z4 d4 | e8 d6 c2 | B2 A2 G8 ^F4 | G8 z4 d4 | e8 f4 e4 | %23
 f8 (e8 | E8) z4 e4 | f4 e4 f8 | e8 z4 d4- | d4 ^c4 d8- | d16 | d16 | d8 z4 d4 | B4 G4 c8 | %32
 z8 z4 c4 | (f8 (3:2:2e8) d4 | c4 d4 B4 c4 | A4 d8 c4 | d4 c2 B2 A8 | G4 E8 F4 | G4 E8 F4 | %39
 (G8 A8) | G8 z4 d4 | e4 c4 d6 c2 | B2 A2 c6 B2 G4 | A8 z4 c4 | d4 e8 e4 | f4 e2 d2 c8 | %46
 z4 f4 e6 d2 | c4 d4 B4 c4 | A4 d8 c4 | d4 c2 B2 A8 | G8 z4 d4 | e8 z4 c4 | d8 B4 c4 | A4 d8 ^c4 | %54
 d4 c2 B2 A8 | z8 z4 A4- | A2 B2 c4 B2 A2 d4 | B4 c4 A4 G4 | A8 A8- | A16 ||[M:4/2] (c8 d8) | e16 | %62
 f8 f8 | e12 e4 | e8 (c8 | e8) d8 | c4 d6 B2 c4 | A4 B4 A8 | A16 || (f8 e8) | e4 c4 d8 | %71
 z4 c6 B2 A2 G2 | F4 f8 e4 | f16 | (e8 d8) | f8 z4 f4 | e4 c4 d8 | d16 || z16 | z16 | G8 G4 _B4- | %81
 B4 A4 G8 | z4 c6 d2 e2 f2 | g6 f2 e4 d4 | z4 c4 g8 | e8 z4 e4 | e8 f8 | e8 z4 e4 | f8 e4 g4- | %89
 g8 (3:2:2e8 d4 | e4 f4 d4 e4 | c8 z4 f4 | e8 d8 | z4 d4 d4 d4 | e8 d4 g4- | g4 ^f4 g8 | %96
 z4 g4 e6 f2 | g4 c4 g8 | f8 z4 f4- | f4 f4 f4 f4 | f4 (c8 A4-) | A4 c6 B2 A2 G2 | A4 F4 z4 f4- | %103
 f2 e2 d4 c8 | (A8 _B8) | A8 z4 A4- | A4 G2 F2 c8- | c4 B2 A2 e8 | c8 z4 f4 | g6 f2 e2 d2 f4- | %110
 f2 e2 c4 d8 | d16 ||[K:F][M:4/2] z16 | z16 | z16 | z16 | z16 | z4 f8 e2 d2 | c8 d8 | %119
 B4 c4 A4 d4- | d2 c2 B2 A2 G4 c4- | c2 A2 B4 G8 | F8 z4 f4- | f2 e2 d2 c2 d2 c2 B2 A2 | G4 F4 G8 | %125
 F8 z4 f4- | f2 e2 d2 c2 d2 c2 B2 A2 | G4 F4 G8 | F8 z8 | z4 f4 d4 e4 | f12 d4 | e4 (c8 d4-) | %132
 d8 e4 f4- | f2 e2 d2 c2 B8 | z4 B4 c8 | c8 (c8 || d8) e8- | e4 d2 c2 (c8 | d8) e8 | f6 e2 c4 d4 | %140
 B8 A8 | z8 (c8 | d8) e4 f4- | f4 e8 d4 | e16- | e16 | z4 e4 g4 g4 | (e8 d8) | e4 f8 e2 d2 | %149
 c4 d8 c4 | d16- | d8 z4 d4 | (3:2:2f8 e4 d4 B4 | c4 d8 G4 | c8 z4 c4- | c4 B4 c8- | c16 || z16 | %158
 z16 | z16 | z16 | z16 | c8 (c8 | d8) e8 | (3:2:2c8 d4 e4 (3:2:1f6- | (3:2:2f2 e4 e8 d4 | %166
 e4 c8 d4- | d4 c2 B2 A8 | d8 c8 | z8 z4 c4 | d4 e4 f8 | z4 c4 c8 | (A8 (B8) | c16) || z16 | z16 | %176
 z16 | z16 | f8 f8 | (3:2:2g8 f4 e4 c4 | d4 c4 _B8 | A4 F6 G2 A2 B2 | c6 d2 e6 c2 | c8 z8 | %184
 z4 f8 e4 | f8 z4 c4 | d8 e4 (3:2:1f6- | (3:2:2f2 e4 f4 d4 e4 | f8 F8 | B8 z4 G4- | %190
 G4 c6 d2 e2 f2 | d4 c4 d8 | c16 || c8 e8 | d8 c8 | (3:2:2d8 e4 f4 (3:2:1g6- | (3:2:2g2 f4 f8 e4 | %197
 f8 f8 | d8 f8 | c8 c4 (3:2:1c6- | (3:2:2c2 B4 A8 G4 | A4 c6 B2 A2 G2 | F4 f8 e4 | f8 z8 | %204
 z4 c4 d4 e4 | f4 c4 d8 | z4 f4 d6 e2 | f4 f8 e2 d2 | d4 d8 c2 B2 | B4 d8 c4- | c2 B2 G4 A4 G4 | %211
 c4 B4 c8 | c16 ||[M:4/2] z8 G8 | F8 z4 B4 | A4 G8 F4 | A4 B4 c8 | c16 | z8 e8 | d8 d8 | %220
 e4 f6 e2 d2 c2 | d8 c8- | c8 z8 | f8 f8 | g8 c4 e4 | f4 d4 c8 | c8 z8 | (3e8 e8 f8 | %228
 (3:2:2e16 d8 | (3d12 e4 (f8 | (3:2:2(_e8) d16) | (3(c8 G8) A8 | (3:2:2B8 c16 | c16 |][K:C] g16- | %235
 g16 | (g12 a4) | a8 f4 g4 | e4 d4 e8 | c4 f8 e2 d2 | e8 d4 f4 | e4 a8 g4 | a8 z4 g4- | %243
 g4 f2 e2 f8 | e4 a12 | f4 g4 e4 c4 | z4 B4 c4 G4 | c8 g8 | e6 f2 g4 f4- | f2 e2 d2 c2 B4 c4- | %250
 c4 B4 c8 | z16 | z16 | z4 c4 d4 f4 | e4 d2 c2 B8 | A8 z4 a4- | a4 g4 a8 | a16 | z4 a8 g4- | %259
 g4 f4 g8 | z4 f4 g4 e4 | d4 c4 d8 | B6 c2 d4 e4 | (3:2:2c16 (d8 | (3:2:2(c8) B16) | (3e12 f4 g8 | %266
 (3:2:2c16 z8 | (3:2:2G16 G8 | (3:2:4A12 G4 A4 B4 | (3:2:2c16 f8 | (3:2:4e12 f4 g6 a2 | %271
 (3:2:2g8 _b16 | (3:2:2a8 g16 | g16 |] %274
V:3
 (D8 E8) | (F8 G8) | A8 G8 | z8 z4 G4 | A6 G2 F2 E2 D4 | A8 z8 | z4 A4 D4 G4- | G4 ^F4 G8 | %8
 A4 c6 B2 A2 G2 | F6 G2 A8 | G16 | z16 | z4 d6 c2 A4 | B4 (G8 c4-) | c4 B4 c2 B2 A2 G2 | F6 G2 A8 | %16
 z4 G4 D4 d4- | d2 c2 A4 B4 G4 | z4 G8 F4 | G8 D8 | z8 z4 d4 | B4 G4 A6 B2 | c8 d4 c4 | d8 c4 A4- | %24
 A4 G4 A4 c4 | d4 c4 d8 | c2 B2 A2 G2 F4 D4 | A8 D4 A4 | B8 z4 A4 | B8 A4 d4- | d4 c2 B2 A8 | %31
 G8 z4 G4 | F4 D4 E4 e4 | c4 d4 B8 | A8 z8 | z4 A4 B4 G4 | A8 D4 d4 | z4 B4 c4 d4 | z4 B4 c4 d4 | %39
 z4 B4 c4 d4 | B4 c4 A4 D4 | (G8 (A8) | G16) | z4 d4 c4 A4 | B4 c4 G8 | z4 d4 e8 | c4 d4 B8 | %47
 A8 z8 | z4 A4 B4 G4 | A8 D4 d4 | B4 c4 A8 | G4 B4 A8 | D8 z4 E4 | F4 D4 A8 | D8 z4 d4 | %55
 B4 c4 A4 d4- | d4 c4 d8 | G4 A4 F4 G4 | E8 D8- | D16 ||[M:4/2] (c8 A8) | (B8 c8) | d8 d8 | %63
 c12 c4 | c8 (A8 | c8) A8 | z4 A6 G2 E4 | F4 G4 E8 | D16 || c8 c6 B2 | A2 G2 (F8 f4-) | %71
 f4 e4 f4 c4- | c4 A4 B8 | (c8 A8) | z4 A4 _B8 | A8 F4 c4- | c2 B2 G4 A8 | G16 || c8 c4 (3:2:1d6- | %79
 (3:2:2d2 c4 c8 B4 | (3:2:2c8 d4 e4 f4- | f2 e2 d2 c2 d8 | c2 B2 A2 G2 A8 | G8 z4 d4 | e4 f4 d8 | %85
 c4 e6 d2 c2 B2 | A2 G2 G8 F4 | G4 c8 B2 A2 | A6 B2 c4 e4 | d8 z4 c4- | c4 A4 B4 c4 | A8 G4 d4 | %92
 B4 c4 A8 | G4 B4 B4 B4 | c8 B4 G4 | d8 B4 c4 | d8 c8- | c8 z4 c4- | c4 c4 c4 c4 | c8 (c8 | %100
 A8) c6 B2 | A6 G2 F8 | z4 c4 B4 c4 | A4 _B4 G8 | F16- | F8 z4 c4 | (d8 e8) | (f8 c8) | %108
 f6 e2 d4 c4 | d8 c6 B2 | A4 G4 A8 | G16 ||[K:F][M:4/2] F16 | (G8 F8) | G8 A4 B4- | %115
 B2 A2 G2 F2 E4 (3:2:1G6- | (3:2:2G2 F4 F8 E4 | F16 | z16 | z16 | z16 | z16 | z8 B8 | d16 | c16 | %125
 z8 B8 | d16 | c16 | (c8 B8) | (A8 B8) | c8 z4 F4 | G4 F4 G4 A4 | B4 A4 B4 c4 | d4 B6 A2 G2 F2 | %134
 E4 F4 G8 | z16 || z16 | z8 F8 | (F8 G8) | A16 | z8 (F8 | G8) A8 | B8 A4 A4- | A4 G4 A8 | z8 A8 | %145
 c8 c8 | (A8 G8) | A8 B8 | A4 A8 G4 | A8 z8 | z16 | F8 (G8 | F8) (G8 | A8) (B8 | A8) G4 F4 | %155
 E4 F4 G8 | F16 || z16 | c8 (c8 | B8) c8 | F6 G2 A4 B4 | B2 A2 G2 F2 G8 | F8 A8 | B8 c8 | %164
 (3:2:2A8 B4 c4 d4- | d4 c4 _B8 | A8 z4 F4- | F4 E4 F4 A4 | G8 E4 A4- | A4 G4 A8 | z4 B4 c4 B2 A2 | %171
 G4 F4 G8 | F16- | F16 || c8 c8 | d8 B8 | c8 B4 A4- | A4 G4 (3:2:2A8 B4 | c4 A4 d8- | d8 c8 | z16 | %181
 z8 c8 | (A8 G8) | A8 B8 | (A8 G8) | (F8 G8) | A6 B2 c4 d4- | d4 c4 B8 | A4 f6 e2 d2 c2 | d8 c8 | %190
 B4 A4 G8 | F16- | F16 || c8 c8 | B8 A8 | F4 B6 A2 G2 F2 | E4 F4 G8 | F16 | z4 A8 A4 | A8 G8 | %200
 c8 d8 | c16 | z8 c8 | (A8 G8) | A8 B8 | A4 G4 F4 G4 | A4 c4 B8 | A16 | z16 | B8 (A8 | %210
 G8) F4 (3:2:1c6- | (3:2:2c2 A4 B4 G8 | F16 ||[M:4/2] z8 c8 | A8 B8 | c8 B4 A4 | (F8 G8) | F16 | %218
 z8 c8 | A8 B8 | (3:2:2c8 B4 c4 d4- | d2 c2 B2 A2 G8 | F8 z8 | c8 A8 | B8 c8 | B4 A4 G8 | F8 z8 | %227
 z16 | (3G8 G8 D8 | (3:2:2G16 F8 | (3G12 A4 B8 | (3:2:2(c16 F8-) | (3:2:2(F8 G16) | F16 |] %234
[K:C] (d8 c8) | (B8 c8) | d8 e4 f4- | f4 e4 d4 B4 | c4 d4 B8 | z8 A8 | (A8 d8) | c8 d8 | e4 c8 B4 | %243
 c16 | z4 f8 e4 | d4 g8 e4 | f4 g4 e4 d4 | e4 f4 d8 | c8 z8 | (c8 d8) | d8 e4 f4 | g8 f4 g4- | %252
 g4 f2 e2 d4 (3:2:1e6- | (3:2:2e2 d4 c8 B4 | c8 z4 G4 | c6 d2 e4 f4 | d8 e4 f4- | f4 e2 d2 e8 | %258
 (f8 d8) | z8 z4 d4- | d2 c2 A4 B4 c4 | d4 G4 A8 | (G8 g8) | (3:2:2f16 (g8 | (3:2:2(e8) d16) | %265
 (3:2:2c16 z8 | (3e12 d4 c8 | (3:2:2B16 c8 | (3d12 c4 f8 | (3:2:2e16 d8 | (3g12 f4 e8 | %271
 (3d8 g8 (f8 | (3:2:2(e8) d16) | c16 |] %274
V:4
 z16 | D,8 (E,8 | D,8) G,,4 C,4- | C,4 B,,2 A,,2 B,,8 | A,,8 z8 | D,8 (E,8 | D,8) B,,4 G,,4 | %7
 D,8 G,,8 | z16 | z4 D,8 D,4 | G,,4 G,4 C,4 E,4 | D,8 C,8 | z4 D,8 D,4 | G,,4 G,4 C,4 E,4 | %14
 D,8 C,8 | z4 D,12 | G,,8 z4 D,4- | D,4 D,4 G,,4 G,4 | C,4 E,4 D,8 | C,8 z4 D,4 | (E,8 D,8) | %21
 (G,,8 D,8) | A,,4 A,4 D,4 A,4 | F,4 D,4 A,8 | z8 A,8 | D,4 A,4 F,4 D,4 | A,8 D,8 | z8 (D,8 | %28
 G,,8) z4 D,4 | B,,4 G,,4 D,8 | z4 D,4 D,4 D,4 | G,,4 G,4 C,4 E,4 | D,8 A,,8 | z4 D,4 E,8 | %34
 A,,4 D,4 E,4 C,4 | D,4 F,4 E,8 | D,8 z4 D,4 | E,8 A,,4 D,4 | E,8 A,,4 D,4 | E,8 z4 D,4 | %40
 E,4 C,4 D,4 F,4 | E,8 D,8 | G,,4 C,6 D,2 E,4 | D,4 C,2 B,,2 A,,8 | G,,4 C,6 D,2 E,4 | %45
 D,4 C,2 B,,2 A,,8 | z4 D,4 E,8 | A,,4 D,4 E,4 C,4 | D,4 F,4 E,8 | D,8 z4 D,4 | E,4 C,4 D,4 F,4 | %51
 E,8 A,,8 | z4 D,4 E,4 C,4 | (D,8 A,,8) | z8 z4 D,4 | E,4 C,4 (D,8 | A,,8) z4 D,4 | %57
 E,4 C,4 D,4 B,,4 | A,,8 D,8- | D,16 ||[M:4/2] (C,8 F,8) | (E,8 A,,8) | D,8 D,8 | A,,12 A,,4 | %64
 A,,8 z4 (3:2:1A,,6- | (3:2:2A,,2 B,,4 C,4 D,8 | A,,4 D,8 C,4 | D,4 G,,4 A,,8 | D,16 || (F,8 C,8) | %70
 F,8 D,4 F,4 | C,8 z4 F,4- | F,2 G,2 A,4 G,8 | F,12 E,2 D,2 | C,8 _B,,8 | F,8 z4 F,4 | %76
 C,4 E,4 D,8 | G,,16 || (3:2:2C,8 D,4 E,4 F,4 | G,4 E,4 D,8 | C,8 z4 _B,,4- | B,,4 C,4 G,8 | %82
 C,8 z8 | z4 G,4 A,4 B,4 | C4 A,4 G,8 | z4 C,4 A,,6 B,,2 | C,4 E,4 D,8 | C,8 z4 C,4 | D,8 E,4 C,4 | %89
 G,8 C,8 | z4 F,4 G,4 E,4 | F,8 G,4 D,4 | E,4 C,4 D,8 | G,,4 G,4 G,4 G,4 | %94
 C,2 D,2 E,2 F,2 G,4 E,4 | D,8 E,4 C,4 | G,8 C,6 D,2 | E,4 F,8 E,4 | F,16 | z4 F,8 F,4 | F,8 F,8 | %101
 z8 z4 F,4- | F,4 F,4 G,4 F,4- | F,4 _B,,4 C,8 | (D,8 _B,,8) | D,8 (A,,8 | D,8) (C,8 | F,8) z8 | %108
 z4 F,6 G,2 A,4 | G,8 C,4 F,4- | F,4 E,4 D,8 | G,,16 ||[K:F][M:4/2] F,12 E,2 D,2 | C,8 D,8 | %114
 B,,4 C,4 A,,4 D,4- | D,2 C,2 B,,2 A,,2 G,,4 (3:2:1C,6- | (3:2:2C,2 A,,4 B,,4 G,,8 | (F,,8 F,8) | %118
 (E,8 D,8) | z4 E,4 F,4 D,4 | G,8 z4 C,4- | C,2 D,2 B,,4 C,8 | D,16 | B,,16 | C,16 | D,16 | B,,16 | %127
 C,16 | (F,8 G,8) | A,4 F,4 G,8 | (3:2:2F,8 E,4 D,8 | C,4 F,4 E,4 D,4 | G,4 D,4 G,4 F,4 | %133
 B,,8 z4 _E,4 | C,4 D,4 C,8 | F,8 (F,8 || D,8) C,8 | A,,4 A,6 G,2 F,2 E,2 | D,8 C,8 | z4 F,8 D,4 | %140
 G,8 D,8 | G,,4 G,4 F,8 | z8 z4 F,4 | D,4 E,4 F,8 | C,8 z4 A,,4 | (3:2:2A,,8 B,,4 C,8 | z16 | z16 | %148
 z4 F,4 D,4 E,4 | F,4 D,4 E,8 | (D,8 G,,8) | (D,8 G,,8) | (D,8 G,,8) | z4 D,8 E,4 | F,8 z4 F,4 | %155
 C,4 D,4 C,8 | F,,16 || F,8 (F,8 | E,8) F,8 | D,8 C,8 | (3:2:2D,8 E,4 F,4 (3:2:1G,6- | %161
 (3:2:2G,2 F,4 F,8 E,4 | F,16 | z16 | z16 | z16 | z8 F,,8 | (G,,8 F,,8) | (G,,8 A,,8) | %169
 (B,,8 A,,8) | (G,,8 (F,,8) | C,16) | (D,8 (B,,8) | F,16) || z8 F,8 | F,8 (3:2:2G,8 F,4 | %176
 E,4 C,4 D,4 C,4 | B,,8 A,,4 F,,4 | F,8 D,8 | G,8 C,8 | z16 | z8 z4 F,,4- | %182
 F,,2 G,,2 A,,2 B,,2 C,8 | F,,4 F,8 E,4 | F,8 z8 | z4 F,4 C,4 _E,4 | D,8 C,4 B,,4 | F,8 G,8 | %188
 (D,8 B,,8) | z4 B,,4 C,6 D,2 | E,4 F,4 C,8 | z4 A,,4 B,,8 | F,,16 || C,8 C,8 | D,8 F,8 | %195
 D,8 B,,8 | C,16 | F,,8 z8 | F,8 D,8 | F,8 C,8 | C,8 B,,8 | A,,8 z4 F,,4 | (3:2:2A,,8 B,,4 C,8 | %203
 F,,4 F,8 E,4 | F,8 z4 G,4 | D,4 _E,4 D,4 B,,4 | F,8 G,8 | D,8 F,8 | B,,6 C,2 D,2 E,2 F,4 | %209
 G,6 F,2 D,4 F,4 | C,8 F,4 E,4 | C,4 D,4 C,8 | F,,16 ||[M:4/2] z8 C,8 | D,8 G,,8 | %215
 C,6 D,2 E,4 (3:2:1F,6- | (3:2:2F,2 E,4 D,4 C,8 | F,,16 | z8 C,8 | D,8 B,,8 | A,,8 z4 G,,4- | %221
 G,,2 A,,2 B,,4 C,8 | F,,8 z8 | F,8 A,8 | G,8 F,4 E,4 | D,4 F,4 C,8 | F,,8 z8 | (3C,8 C,8 D,8 | %228
 (3(C,8 G,8) A,8 | (3(G,8 G,,8) D,8 | (3:2:2G,,16 G,8 | (3C,12 _E,4 D,8- | (3:2:2(D,8 C,16) | %233
 F,,16 |][K:C] (G,8 C,8) | G,8 (C,4 C4 | C4) B,4 C4 F,4- | F,2 G,2 A,4 D,4 G,4 | A,4 F,4 E,8 | %239
 (F,8 D,8) | z8 z4 D,4 | A,4 C4 B,8 | A,4 C4 G,8 | (C,8 F,8) | z4 F,6 G,2 A,4 | _B,4 G,4 C8 | %246
 D4 G,4 A,4 B,4 | C4 A,4 G,8 | C,6 D,2 E,4 F,4- | F,2 G,2 A,4 G,4 F,2 E,2 | D,8 C,4 F,4 | %251
 E,8 D,4 C,4 | E,4 F,4 G,8 | E,4 F,4 D,8 | (C,8 G,8) | A,4 C8 B,2 A,2 | B,8 A,8 | z8 A,8 | %258
 D,4 D4 B,4 G,4 | A,8 (G,8 | D,8) z4 A,4 | D,4 E,4 D,8 | G,16 | (3:2:2A,16 (G,8 | %264
 (3:2:2(C,8) G,16) | (3:2:2C,16 z8 | (3:2:4C,12 D,4 E,6 F,2 | (3G,12 F,4 E,8 | %268
 (3:2:4D,12 E,4 F,6 G,2 | (3:2:2A,16 D,8 | (3:2:4C,12 D,4 E,6 F,2 | (3G,12 A,4 _B,8 | %272
 (3:2:2C8 G,16 | C,16 |] %274

